X:1
T:Lady and Gentleman
T:Lady and Gentleman
T:The Balkan Princess
T:Paul Rubens
C:Paul Rubens
%%score 1 2 { ( 3 5 ) | 4 }
L:1/8
Q:1/4=80
M:2/4
K:Eb
V:1 treble nm="Magda" snm="Ma"
V:2 treble-8 nm="Blatz" snm="Bl"
V:3 treble nm="Piano"
V:5 treble 
V:4 bass 
V:1
"^Allegro moderato" z4 | z4 | z4 | z3 || G/ A/ | B G c e | B/ A/ G/ A/ B G | A/ G/ F/ G/ A B | %8
w: ||||Now you|must con- fess I|al- ways, more or less, Have|min- gled with the Up- per|
 G3 z | z4 | z4 | z4 | z2 z E/ F/ | G/ F/ E/ F/ G F | E3 z | z4 | z4 | z4 | z2 z D/ E/ | F D G B | %20
w: Ten;||||I sup-|pose I must- n't ask you|when?||||And I've|got no doubt They|
 =A/ G/ F/ G/ A c | =A/ G/ F/ G/ A c | B3 z | z4 | z4 || z e/ c/ d/ c/ B | z4 | z F z C/ D/ | %28
w: on- ly let 'em out One|night when it was ra- ther|dark!|||I'm a la- dy, and \-||Well, what a-|
 E B3 | c B c B/ B/ | c/ c/ B c z | z4 | z4 | z e/ c/ d/ c/ B | z4 | D F2 C/ D/ | (E B2) z | %37
w: bout it?|I think you are a|lit- tle bit too \-|||H'I'm a la- dy and \-||Prove it, if you|can! _|
 z2 z c/ A/ | _G/ F/ =E/ F/ c/ B/ z | z C/ ^C/ D/ G/ F/ G/ | E3 z || z4 | z4 | z4 | z3 || z | z4 | %47
w: And your|aitch- es you've for- got- ten!|What a lit- tle gen- tle-|man!|||||||
 z4 | z4 | z2 z G/ A/ | B G c e | B/ A/ G/ A/ B G/ G/ | A/ G/ F/ G/ A B | E3 z | z4 | z4 | z4 | %57
w: ||There was|one young Count, He|owed a large a- mount \- He was|ve- ry wide- ly known at|Court!||||
 z2 z c/ c/ | =A/ G/ F/ G/ A c | G3 D/ E/ | F D G B/ B/ | =A/ G/ F/ G/ A c/ c/ | =A/ G/ F/ G/ A c | %63
w: Well, that|does- n't mat- a- dor, dear|heart! Yes, and|mine, a- gain, Had a|Cas- tle up in Spain, And their|ti- tle was ex- treme- ly|
 B3 z | z4 | z4 || z e/ c/ d/ c/ B | z4 | z F z C/ D/ | E B3 | c B c B/ B/ | c/ c/ B c z | z4 | %73
w: smart \-|||I'm a la- dy, and \-||Well, what a-|bout it?|I think you are a|lit- tle bit too \-||
 z4 | z e/ c/ d/ c/ B | z4 | D F2 C/ D/ | (E B2) d/ e/ | f/ e/ d/ e/ f/ e/ z | z4 | %80
w: |H'I'm a la- dy and \-||Prove it, if you|can! _ Where's the|four- pence that I lent you?||
 z C/ ^C/ D/ G/ F/ G/ | E3 z |] %82
w: What a lit- tle gen- tle-|man!|
V:2
 z4 | z4 | z4 | z3 || z | z4 | z4 | z4 | z2 z G/ A/ | B G c e | B/ A/ G/ A/ B G | A/ G/ F/ G/ A B | %12
w: ||||||||Yes, and|you must own I'm|in- ti- mate- ly known A-|mong the ve- ry best of|
 E3 z | z4 | z2 z D/ E/ | F D G B | =A/ G/ F/ G/ A c | =A/ G/ F/ G/ A c | G3 z | z4 | z4 | z4 | %22
w: men!||I've a|ped- i- gree You|real- ly ought to see \- My|peo- ple lived in- side the|Ark!||||
 z2 z B/ c/ | d/ c/ B/ c/ d c | B2 z2 || z4 | z B/ G/ F/ E/ C | z4 | z4 | z4 | z2 z B | e d2 c | %32
w: I sup-|pose they had to feed the|shark!||I'm a gen- tle- man!||||And|you're ra- ther|
 B !>!G z F | z4 | z B/ G/ F/ E/ C | z4 | z2 z (d/e/) | f/ e/ d/ e/ f/ e/ z | z2 z A/ F/ | %39
w: less than a \-||H'I'm a gen- tle- man!||Your _|gram- mar's sim- ply rot- ten!|What a|
 C/ =B,/ z z2 | z4 || z4 | z4 | z4 | z3 || G/ A/ | B G c e | (B/A/) G/ A/ B G/ G/ | %48
w: la- dy!||||||I can|trace my line To|1 _ 4 4 9, They were|
 A/ G/ F/ G/ A B | G3 z | z4 | z4 | z4 | z2 z (E/F/) | G/ F/ E/ F/ G F | E3 D/ E/ | F D G B | %57
w: peo- ple of the good old|sort!||||They _|knew him at the Coun- ty|Court! All my|an- ces- tors Were|
 =A/ G/ F/ G/ A z | z4 | z4 | z4 | z4 | z4 | z2 z (B/c/) | d/ c/ B/ c/ d c | B2 z2 || z4 | %67
w: Span- ish Mat- a- dors \-||||||Sir _|El- e- phant and Cas- tle,|Bart.!||
 z B/ G/ F/ E/ C | z4 | z4 | z4 | z2 z B | e d2 c | B !>!G z F | z4 | z B/ G/ F/ E/ C | z4 | z4 | %78
w: I'm a gen- tle- man!||||And|you're ra- ther|less than a \-||H'I'm a gen- tle- man!|||
 z2 z c/ A/ | _G/ F/ =E/ F/ c/ B/ A/ F/ | C/ =B,/ z z2 | z4 |] %82
w: Where's the|wash- ing that I sent you? What a|la- dy!||
V:3
!f! Gg/f/ e/d/c | Ff/e/ d/c/B | ec/A/ G/A/F | [G,E] z [EGe] ||!p! G/A/ | [GB][EG] c[EGe] | %6
 [GB]/[FA]/[EG]/[FA]/ [GB][EG] | A/G/F/G/ AB | G2- GG/A/ | [GB][EG] c[EGe] | %10
 [GB]/[FA]/[EG]/[FA]/ [GB][EG] | A/G/F/G/ AB | [G,E]3 E/F/ | G/F/E/F/ GF | (E2 e) D/E/ | FD GB | %16
 =A/G/F/G/ Ac | =A/G/F/G/ Ac | [DG]3 D/E/ | F[B,D] G[B,=EB] | =A/G/F/G/ Ac | =A/G/F/G/ A[EFc] | %22
 [DB]3 B,/C/ | D/C/B,/C/ DC | B,2 [B,DB]2 || z e/c/ d/c/B | z B/G/ F/E/C | D[A,DF] z C/D/ | %28
 [G,E] [EGB]3 | (3c/d/c/[GB] (3c/d/c/[GB] | (3=c/d/c/[AB] (3c/d/c/[AB] | [ee'][dd'] z [cc'] | %32
 [Bb][Gg] z F | z e/c/ d/c/B | z B/G/ F/E/C | D[A,DF] z C/D/ | [G,E] [EGB]2 d/e/ | %37
 f/e/d/e/ f/e/c/A/ | _G/F/=E/F/ c/B/A/F/ | C/=B,/C/^C/ D/G/F/G/ | [G,E] z [EGe] z || %41
!f! Gg/f/ e/d/c | Ff/e/ d/c/B | ec/A/ G/A/F | [G,E] z [EGe] ||!p! G/A/ | [GB][EG] c[EGe] | %47
 [GB]/[FA]/[EG]/[FA]/ [GB][EG] | A/G/F/G/ AB | G2- GG/A/ | [GB][EG] c[EGe] | %51
 [GB]/[FA]/[EG]/[FA]/ [GB][EG] | A/G/F/G/ AB | [G,E]3 E/F/ | G/F/E/F/ GF | (E2 e) D/E/ | FD GB | %57
 =A/G/F/G/ Ac | =A/G/F/G/ Ac | [DG]3 D/E/ | F[B,D] G[B,=EB] | =A/G/F/G/ Ac | =A/G/F/G/ A[EFc] | %63
 [DB]3 B,/C/ | D/C/B,/C/ DC | B,2 [B,DB]2 || z e/c/ d/c/B | z B/G/ F/E/C | D[A,DF] z C/D/ | %69
 [G,E] [EGB]3 | (3c/d/c/[GB] (3c/d/c/[GB] | (3=c/d/c/[AB] (3c/d/c/[AB] | [ee'][dd'] z [cc'] | %73
 [Bb][Gg] z F | z e/c/ d/c/B | z B/G/ F/E/C | D[A,DF] z C/D/ | [G,E] [EGB]2 d/e/ | %78
 f/e/d/e/ f/e/c/A/ | _G/F/=E/F/ c/B/A/F/ | C/=B,/C/^C/ D/G/F/G/ | [G,E] z [EGe] z |] %82
V:4
 =B,,[G,=B,] C,[G,C] | =A,,[F,=A,] [_B,,_B,][_A,,_A,] | [G,,G,][F,,F,] B,,[B,,A,] | E,B,,E,, || z | %5
 E,B, C,G, | E,B, B,,B, | F,B, B,,B, | E,B, B,,B, | E,B, C,G, | E,B, B,,B, | F,B, B,,B, | %12
 E,,B,,E, E,,/F,,/ | G,,/F,,/E,,/F,,/ G,,F,, | (E,,2 E,) z | B,,F, F,,F, | C,F, F,,F, | %17
 C,F, F,,F, | B,,F, F,,F, | B,,F, D,_D, | C,F, F,,F, | C,F, F,,F, | B,,F,B, B,,/C,/ | %23
 D,/C,/B,,/C,/ D,C, | B,,2 [B,,A,]2 || E,,G, F,,A, | G,,G, A,,A, | B,, z B,, z | E,,B,, G,B, | %29
 E,B, =E,[B,^C] | F,[B,D] B,,[B,D] | ED z C | B,G, z [F,,F,] | E,,G, F,,A, | G,,G, A,,A, | %35
 B,, z B,, z | E,,B,, G,B, |[I:staff -1] [_DEG][DEG] [CE]2 | %38
[I:staff +1] [F,=A,E][F,A,E] [B,,_A,]2- | [B,,A,]3 [B,,A,] | [E,,E,][B,,,B,,] [E,,,E,,] z || %41
 =B,,[G,=B,] C,[G,C] | =A,,[F,=A,] [_B,,_B,][_A,,_A,] | [G,,G,][F,,F,] B,,[B,,A,] | E,B,,E,, || z | %46
 E,B, C,G, | E,B, B,,B, | F,B, B,,B, | E,B, B,,B, | E,B, C,G, | E,B, B,,B, | F,B, B,,B, | %53
 E,,B,,E, E,,/F,,/ | G,,/F,,/E,,/F,,/ G,,F,, | (E,,2 E,) z | B,,F, F,,F, | C,F, F,,F, | %58
 C,F, F,,F, | B,,F, F,,F, | B,,F, D,_D, | C,F, F,,F, | C,F, F,,F, | B,,F,B, B,,/C,/ | %64
 D,/C,/B,,/C,/ D,C, | B,,2 [B,,A,]2 || E,,G, F,,A, | G,,G, A,,A, | B,, z B,, z | E,,B,, G,B, | %70
 E,B, =E,[B,^C] | F,[B,D] B,,[B,D] | ED z C | B,G, z [F,,F,] | E,,G, F,,A, | G,,G, A,,A, | %76
 B,, z B,, z | E,,B,, G,B, |[I:staff -1] [_DEG][DEG] [CE]2 | %79
[I:staff +1] [F,=A,E][F,A,E] [B,,_A,]2- | [B,,A,]3 [B,,A,] | [E,,E,][B,,,B,,] [E,,,E,,] z |] %82
V:5
 x4 | x3 [DF] | [EB][EA] DD | x3 || x | x4 | x4 | z D z [DA] | z E z E/F/ | x4 | x4 | z D z [DA] | %12
 x4 | x4 | x4 | z B, z [B,D] | z E z [E=A] | z E z [E=A] | x4 | x4 | z _E z [E=A] | z E x2 | x4 | %23
 x4 | x4 || x [EG] z [DA] | x [B,E] x2 | x3 A, | x4 | x4 | x4 | x4 | x4 | x [EG] z [DA] | %34
 x [B,E] x2 | x3 A, | x4 | x4 | x2 D2 | x3 D | x4 || x4 | x3 [DF] | [EB][EA] DD | x3 || x | x4 | %47
 x4 | z D z [DA] | z E z E/F/ | x4 | x4 | z D z [DA] | x4 | x4 | x4 | z B, z [B,D] | z E z [E=A] | %58
 z E z [E=A] | x4 | x4 | z _E z [E=A] | z E x2 | x4 | x4 | x4 || x [EG] z [DA] | x [B,E] x2 | %68
 x3 A, | x4 | x4 | x4 | x4 | x4 | x [EG] z [DA] | x [B,E] x2 | x3 A, | x4 | x4 | x2 D2 | x3 D | %81
 x4 |] %82

